img/icons/Header/settings-popup/sun.svg

<svg width="46" height="46" viewBox="0 0 46 46" fill="none" xmlns="http://www.w3.org/2000/svg">
<path d="M23 35.5C19.6848 35.5 16.5053 34.183 14.1611 31.8388C11.8169 29.4946 10.5 26.3152 10.5 23C10.5 19.6848 11.8169 16.5053 14.1611 14.1611C16.5053 11.8169 19.6848 10.5 23 10.5C26.3152 10.5 29.4946 11.8169 31.8388 14.1611C34.183 16.5053 35.5 19.6848 35.5 23C35.5 26.3152 34.183 29.4946 31.8388 31.8388C29.4946 34.183 26.3152 35.5 23 35.5ZM20.9166 0.083313H25.0833V6.33331H20.9166V0.083313ZM20.9166 39.6666H25.0833V45.9166H20.9166V39.6666ZM5.3229 8.26873L8.26873 5.3229L12.6875 9.74165L9.74165 12.6875L5.3229 8.26873ZM33.3125 36.2583L36.2583 33.3125L40.6771 37.7312L37.7312 40.6771L33.3125 36.2583ZM37.7312 5.32081L40.6771 8.26873L36.2583 12.6875L33.3125 9.74165L37.7312 5.3229V5.32081ZM9.74165 33.3125L12.6875 36.2583L8.26873 40.6771L5.3229 37.7312L9.74165 33.3125ZM45.9166 20.9166V25.0833H39.6666V20.9166H45.9166ZM6.33331 20.9166V25.0833H0.083313V20.9166H6.33331Z" fill="#651FFF"/>
</svg>

<svg width="46" height="46" fill="none" xmlns="http://www.w3.org/2000/svg"><path d="M23 35.5a12.5 12.5 0 1 1 0-25 12.5 12.5 0 0 1 0 25ZM20.917.083h4.166v6.25h-4.166V.083Zm0 39.584h4.166v6.25h-4.166v-6.25ZM5.323 8.269l2.946-2.946 4.418 4.419-2.945 2.945-4.42-4.418Zm27.99 27.99 2.945-2.947 4.42 4.42-2.947 2.945-4.419-4.419ZM37.73 5.32l2.946 2.948-4.419 4.418-2.946-2.945 4.42-4.42V5.32ZM9.741 33.313l2.947 2.945-4.42 4.42-2.945-2.947 4.419-4.419Zm36.176-12.396v4.166h-6.25v-4.166h6.25Zm-39.584 0v4.166H.083v-4.166h6.25Z" fill="#651FFF"/></svg>
